!!!!SEGMENT: pl-kk--kk-i-138--002_anonim--sanctorum-meritis.krn
!!!cenid: 17xx:2657
!!!COM: Anonim
!!!COM-rismID: pe30004985
!!!CDT:
!!!CNT:
!!!OTL: Sanctorum meritis
!!!PDT:
!!!AGN: Sacred
!!!YEC: Copyright 2022 Narodowy Instytut Fryderyka Chopina (https://polishscores.org)
!!!YEM: License CC-BY-4.0 (https://creativecommons.org/licenses/by/4.0)
!!!SMS-siglum: PL-Kk
!!!SMS-shelfmark: Kk.I.138
!!!SMS-variant:
!!!SMS-altvar:
!!!SMS-shelfwork: 002 W
!!!NIFC-rismSourceID: 1001157185
!!!NIFC-rismChildID: 1001157191
!!!NIFC-islandoraID: pl-kk:15879
!!!URL-pdf-islandora: https://repozytorium.nifc.pl/islandora/object/pl-kk%3A15879/datastream/PDF/view
!!!URL-scan: https://polish.musicsources.pl/pl/lokalizacje/galeria/rekopisy/7103/12 @EN{Scan on Polish Music Sources Website} @PL{Skany w portalu Dziedzictwo Muzyki Polskiej w otwartym dostępie}
!!!IIIF:
!!!ONB-nifc: UWAGA: utwory w źródle: 1. Catherinae virginis laudes decantemus, 2. Sanctorum meritis (tylko partia basowa, s. 12).
!!!AIN: 1 organ
!!!key:
**kern	**fba	**text	**text	**text
*I"Basso	*	*	*	*
*I'B.	*	*	*	*
*Iorgan	*	*	*	*
*ICklav	*	*	*	*
*clefF4	*	*	*	*
*k[]	*	*	*	*
*d:	*	*	*	*
*M3/2	*	*	*	*
*	*	*v:[1]	*v:[2]	*v:[3]
=1	=1	=1	=1	=1
!LO:TX:a:t=Pro Com(m)uni Plurimorum S(an)ctorum Martyrum	!	!	!	!
*2\right	*	*	*	*
2A\	.	San-	Hi	Hi
2A\	.	-cto-	sunt	pro
2D\	-	-rum	quos	Te
=2	=2	=2	=2	=2
2.A\	.	me-	fa-	Fu-
4F\	6	-ri-	-tu-	-ri-
2G\	.	-tis	e	-as
=3	=3	=3	=3	=3
2E\	6	in-	.	.
2C/	.	-cly-	.	.
2F\	.	-ta	.	.
=4	=4	=4	=4	=4
1D	2	gau-	.	.
.	6	.	.	.
2D/	.	-di-	.	.
=5	=5	=5	=5	=5
1.C	.	-a	.	.
=6	=6	=6	=6	=6
2G\	.	pan-	.	.
2A\	.	-ga-	.	.
2F\	6	-m(us)	.	.
=7	=7	=7	=7	=7
2.E\	.	So-	.	.
4E\	n	-ci-	.	.
2E\	.	-j	.	.
=8	=8	=8	=8	=8
2.C/	.	ge-	.	.
4C/	.	-sta-	.	.
2BB/	6	-(que)	.	.
=9	=9	=9	=9	=9
1D	4	for-	.	.
.	3	.	.	.
2D\	#	-ti-	.	.
=10	=10	=10	=10	=10
2,GGZ/	.	-a	.	.
2GG/	.	gli-	.	.
2G\	.	-scens	.	.
=11	=11	=11	=11	=11
2F\	5	fert	.	.
4F\	.	a-	.	.
4E\	6	.	.	.
2D/	6	-ni-	.	.
=12	=12	=12	=12	=12
2.C/	.	-m(us)	.	.
4C/	.	pro-	.	.
2G\	.	-me-	.	.
=13	=13	=13	=13	=13
2A\	.	-re	.	.
2.F\	2	can-	.	.
4F\	6	-ti-	.	.
=14	=14	=14	=14	=14
1.E	#	-b(us)	.	.
*custos:C	*	*	*	*
!LO:LB:g=original	!	!	!	!
=15	=15	=15	=15	=15
2.C/	.	Vi-	.	.
(4D\	.	.	.	.
4E\)	.	.	.	.
4C/	.	.	.	.
=16	=16	=16	=16	=16
1F	5	-cto-	.	.
2F\	6	-rum	.	.
=17	=17	=17	=17	=17
1G	2	Ge-	.	.
.	6	.	.	.
2G\	.	-nus	.	.
=18	=18	=18	=18	=18
1A	.	O-	.	.
2F\	6	.	.	.
=19	=19	=19	=19	=19
1E	4	.	.	.
.	3	.	.	.
2E\	#	-pti-	.	.
=20	=20	=20	=20	=20
0.AA;	.	-mum	.	.
=21	=21	=21	=21	=21
==	==	==	==	==
*-	*-	*-	*-	*-
!!!ENC: Berenika Jozajtis
!!!END: 2024-05-22
!!!ENC: Leszek Kubiak
!!!END: 2024-06-22
!!!RDF**kern: Z = caesura
